images/icons/plus-icon.svg

<svg width="15px" height="15px" viewBox="0 0 15 15" version="1.1" xmlns="http://www.w3.org/2000/svg" xmlns:xlink="http://www.w3.org/1999/xlink">
    <!-- Generator: Sketch 50.2 (55047) - http://www.bohemiancoding.com/sketch -->
    <desc>Created with Sketch.</desc>
    <defs></defs>
    <g id="Wireframes---Desktop" stroke="none" stroke-width="1" fill="none" fill-rule="evenodd">
        <g id="Dash---My-Vault---My-Files" transform="translate(-146.000000, -598.000000)" fill="#000000">
            <g id="Category-Display" transform="translate(146.000000, 146.000000)">
                <path d="M14.2105263,452 L0.789473684,452 C0.354631579,452 0,452.354647 0,452.789474 L0,466.210526 C0,466.645368 0.354647368,467 0.789473684,467 L14.2105263,467 C14.6453684,467 15,466.645353 15,466.210526 L15,452.789474 C15,452.354632 14.6453526,452 14.2105263,452 Z M0.789473684,466.210526 L0.789473684,452.789474 L14.2105263,452.789474 L14.2120697,466.210526 L0.789473684,466.210526 Z M11.8421053,459.105263 L7.89473684,459.105263 L7.89473684,455.157895 C7.89473684,454.938938 7.71895658,454.763158 7.5,454.763158 C7.28104342,454.763158 7.10526316,454.938938 7.10526316,455.157895 L7.10526316,459.105263 L3.15789474,459.105263 C2.93893816,459.105263 2.76315789,459.281043 2.76315789,459.5 C2.76315789,459.718957 2.93893816,459.894737 3.15789474,459.894737 L7.10526316,459.894737 L7.10526316,463.842105 C7.10526316,464.061062 7.28104342,464.236842 7.5,464.236842 C7.71895658,464.236842 7.89473684,464.061062 7.89473684,463.842105 L7.89473684,459.894737 L11.8421053,459.894737 C12.0610618,459.894737 12.2368421,459.718957 12.2368421,459.5 C12.2368421,459.281043 12.0610618,459.105263 11.8421053,459.105263 Z" id="Page-1"></path>
            </g>
        </g>
    </g>
</svg>

<svg height="24" viewBox="0 0 24 24" width="24" xmlns="http://www.w3.org/2000/svg"><path d="m14.210526 452h-13.42105232c-.4348421 0-.78947368.35465-.78947368.78947v13.42106c0 .43484.35464737.78947.78947368.78947h13.42105232c.434842 0 .789474-.35465.789474-.78947v-13.42106c0-.43484-.354647-.78947-.789474-.78947zm-13.42105232 14.21053v-13.42106h13.42105232l.0015 13.42106zm11.05263132-7.10527h-3.9473682v-3.94737c0-.21895-.1757802-.39473-.3947368-.39473s-.3947368.17578-.3947368.39473v3.94737h-3.9473685c-.2189565 0-.3947368.17578-.3947368.39474s.1757803.39474.3947368.39474h3.9473685v3.94736c0 .21896.1757802.39474.3947368.39474s.3947368-.17578.3947368-.39474v-3.94736h3.9473682c.218957 0 .394737-.17578.394737-.39474s-.17578-.39474-.394737-.39474z" fill-rule="evenodd" transform="matrix(1.5932203 0 0 1.5932203 .127119 -720.0338806)"/></svg>
